images/monogram.svg

<svg fill="none" height="1024" viewBox="0 0 959 1024" width="959" xmlns="http://www.w3.org/2000/svg"><g fill="#563a5f" fill-opacity=".1"><path d="m.567506 764.931c-.56795935 1.79 0 4.156 2.461154 7.225z"/><path d="m950.529 700.1c-2.793-3.581-80.793-44.372-159.124-85.419-5.632-163.996 17.228-351.328 37.249-505.99.757-3.026 1.467-6.031 2.13-9.0147 7.052-30.5614 18.932-67.1328 13.631-99.6763-32.09 0-55.755 49.4865-76.391 75.8921-54.619 69.8179-98.304 157.0909-138.203 244.1719-23.09 48.764-43.893 99.437-62.287 151.72-11.646 34.851-21.869 70.538-30.622 106.901-11.833 39.065-22.15 76.724-30.67 113.167l-4.733-25.127c-5.587-164.594 11.555-329.155 50.549-485.274 6.531-26.662-9.467-70.33-26.505-85.419-2.291-2.0809-5.06-2.9744-7.8-2.5163-2.739.4582-5.264 2.2372-7.109 5.0098-95.985 143.0885-159.739 283.1725-214.5 429.8425-32.799 87.976-68.439 174.929-102.895 261.754-21.204 53.578-54.004 208.495-120.7861 179.021-46.4307-20.396-50.9744-121.479-52.6783-192.192-3.0564-1.341-6.2525-2.01-9.466-1.982-4.44901 0-8.56672 1.215-9.465992 4.092l2.461162 7.225c-2.413832-3.069-3.029122-5.435-2.461162-7.225l-.4733-1.343c-.567959.448 1.325242 10.038.709952 10.486 2.98132 35.8 7.3894 71.358 13.20504 106.517 3.6867 23.409 10.4171 45.749 19.8786 65.982 25.7002 52.687 73.8351 80.307 117.7571 52.047 47.851-30.82 70.332-106.137 95.417-164.319 50.028-116.043 88.46-239.888 134.607-358.041l36.207-92.708c13.584-34.589 41.035-80.176 46.857-117.706-.616 4.22-1.136 8.44-1.704 12.787-11.119 84.53-11.631 170.985-1.515 255.744 5.964 52.684 11.123 105.942 23.334 156.836 13.205 55.049 35.545 93.538 64.511 134.841 5.774-58.758 20.399-115.085 35.923-170.518 12.811-45.65 26.915-90.533 42.313-134.649 2.556 17.199 48.939 55.816 104.126 96.543-1.078 45.788 1.125 91.609 6.579 136.824 4.733 37.53 12.258 75.444 28.777 106.325 32.468 60.867 93.382 73.463 132.003 13.363 16.234-25.127 82.969-155.812 51.164-187.972zm-216.535-115.469c-56.086-29.474-101.57-53.706-103.7-56.391h-.237c36.783-104.795 80.354-204.989 130.205-299.413 11.946-23.637 25.222-45.995 39.71-66.877-6.437 31.521-12.495 63.169-18.553 94.753-20.258 107.733-40.893 217.703-47.425 327.928zm152.355 269.683c-6.342 8.375-26.126 40.983-36.397 42.261-1.982 1.344-4.105 2.271-6.294 2.75-61.103 18.029-59.021-160.864-48.419-222.945 59.352-1.791 128.832 64.831 130.441 78.513 3.929 33.055-21.203 74.933-39.331 99.421z"/></g></svg>

<svg width="959" height="1024" viewBox="0 0 959 1024" fill="none" xmlns="http://www.w3.org/2000/svg">
<path d="M0.567506 764.931C-0.000453353 766.721 0.567506 769.087 3.02866 772.156L0.567506 764.931Z" fill="#563A5F" fill-opacity="0.1"/>
<path d="M950.529 700.1C947.736 696.519 869.736 655.728 791.405 614.681C785.773 450.685 808.633 263.353 828.654 108.691C829.411 105.665 830.121 102.66 830.784 99.6763C837.836 69.1149 849.716 32.5435 844.415 0C812.325 0 788.66 49.4865 768.024 75.8921C713.405 145.71 669.72 232.983 629.821 320.064C606.731 368.828 585.928 419.501 567.534 471.784C555.888 506.635 545.665 542.322 536.912 578.685C525.079 617.75 514.762 655.409 506.242 691.852L501.509 666.725C495.922 502.131 513.064 337.57 552.058 181.451C558.589 154.789 542.591 111.121 525.553 96.032C523.262 93.9511 520.493 93.0576 517.753 93.5157C515.014 93.9739 512.489 95.7529 510.644 98.5255C414.659 241.614 350.905 381.698 296.144 528.368C263.345 616.344 227.705 703.297 193.249 790.122C172.045 843.7 139.245 998.617 72.4629 969.143C26.0322 948.747 21.4885 847.664 19.7846 776.951C16.7282 775.61 13.5321 774.941 10.3186 774.969C5.86959 774.969 1.75188 776.184 0.852608 779.061L3.31377 786.286C0.899938 783.217 0.284648 780.851 0.852608 779.061L0.379308 777.718C-0.188651 778.166 1.70455 787.756 1.08926 788.204C4.07058 824.004 8.47866 859.562 14.2943 894.721C17.981 918.13 24.7114 940.47 34.1729 960.703C59.8731 1013.39 108.008 1041.01 151.93 1012.75C199.781 981.93 222.262 906.613 247.347 848.431C297.375 732.388 335.807 608.543 381.954 490.39L418.161 397.682C431.745 363.093 459.196 317.506 465.018 279.976C464.402 284.196 463.882 288.416 463.314 292.763C452.195 377.293 451.683 463.748 461.799 548.507C467.763 601.191 472.922 654.449 485.133 705.343C498.338 760.392 520.678 798.881 549.644 840.184C555.418 781.426 570.043 725.099 585.567 669.666C598.378 624.016 612.482 579.133 627.88 535.017C630.436 552.216 676.819 590.833 732.006 631.56C730.928 677.348 733.131 723.169 738.585 768.384C743.318 805.914 750.843 843.828 767.362 874.709C799.83 935.576 860.744 948.172 899.365 888.072C915.599 862.945 982.334 732.26 950.529 700.1ZM733.994 584.631C677.908 555.157 632.424 530.925 630.294 528.24H630.057C666.84 423.445 710.411 323.251 760.262 228.827C772.208 205.19 785.484 182.832 799.972 161.95C793.535 193.471 787.477 225.119 781.419 256.703C761.161 364.436 740.526 474.406 733.994 584.631ZM886.349 854.314C880.007 862.689 860.223 895.297 849.952 896.575C847.97 897.919 845.847 898.846 843.658 899.325C782.555 917.354 784.637 738.461 795.239 676.38C854.591 674.589 924.071 741.211 925.68 754.893C929.609 787.948 904.477 829.826 886.349 854.314Z" fill="#563A5F" fill-opacity="0.1"/>
</svg>
